assets/img/icons/duotone-icons/Home/Alarm-clock.svg

<?xml version="1.0" encoding="UTF-8"?>
<svg width="24px" height="24px" viewBox="0 0 24 24" version="1.1" xmlns="http://www.w3.org/2000/svg" xmlns:xlink="http://www.w3.org/1999/xlink">
    <!-- Generator: Sketch 52.2 (67145) - http://www.bohemiancoding.com/sketch -->
    <title>Stockholm-icons / Home / Alarm-clock</title>
    <desc>Created with Sketch.</desc>
    <g id="Stockholm-icons-/-Home-/-Alarm-clock" stroke="none" stroke-width="1" fill="none" fill-rule="evenodd">
        <rect id="bound" x="0" y="0" width="24" height="24"></rect>
        <path d="M7.14319965,19.3575259 C7.67122143,19.7615175 8.25104409,20.1012165 8.87097532,20.3649307 L7.89205065,22.0604779 C7.61590828,22.5387706 7.00431787,22.7026457 6.52602525,22.4265033 C6.04773263,22.150361 5.88385747,21.5387706 6.15999985,21.0604779 L7.14319965,19.3575259 Z M15.1367085,20.3616573 C15.756345,20.0972995 16.3358198,19.7569961 16.8634386,19.3524415 L17.8320512,21.0301278 C18.1081936,21.5084204 17.9443184,22.1200108 17.4660258,22.3961532 C16.9877332,22.6722956 16.3761428,22.5084204 16.1000004,22.0301278 L15.1367085,20.3616573 Z" id="Combined-Shape" fill="#335EEA"></path>
        <path d="M12,21 C7.581722,21 4,17.418278 4,13 C4,8.581722 7.581722,5 12,5 C16.418278,5 20,8.581722 20,13 C20,17.418278 16.418278,21 12,21 Z M19.068812,3.25407593 L20.8181344,5.00339833 C21.4039208,5.58918477 21.4039208,6.53893224 20.8181344,7.12471868 C20.2323479,7.71050512 19.2826005,7.71050512 18.696814,7.12471868 L16.9474916,5.37539627 C16.3617052,4.78960984 16.3617052,3.83986237 16.9474916,3.25407593 C17.5332781,2.66828949 18.4830255,2.66828949 19.068812,3.25407593 Z M5.29862906,2.88207799 C5.8844155,2.29629155 6.83416297,2.29629155 7.41994941,2.88207799 C8.00573585,3.46786443 8.00573585,4.4176119 7.41994941,5.00339833 L5.29862906,7.12471868 C4.71284263,7.71050512 3.76309516,7.71050512 3.17730872,7.12471868 C2.59152228,6.53893224 2.59152228,5.58918477 3.17730872,5.00339833 L5.29862906,2.88207799 Z" id="Combined-Shape" fill="#335EEA" opacity="0.3"></path>
        <path d="M11.9630156,7.5 L12.0475062,7.5 C12.3043819,7.5 12.5194647,7.69464724 12.5450248,7.95024814 L13,12.5 L16.2480695,14.3560397 C16.403857,14.4450611 16.5,14.6107328 16.5,14.7901613 L16.5,15 C16.5,15.2109164 16.3290185,15.3818979 16.1181021,15.3818979 C16.0841582,15.3818979 16.0503659,15.3773725 16.0176181,15.3684413 L11.3986612,14.1087258 C11.1672824,14.0456225 11.0132986,13.8271186 11.0316926,13.5879956 L11.4644883,7.96165175 C11.4845267,7.70115317 11.7017474,7.5 11.9630156,7.5 Z" id="Path-107" fill="#335EEA"></path>
    </g>
</svg>

<svg width="24" height="24" viewBox="0 0 24 24" xmlns="http://www.w3.org/2000/svg"><g fill="none" fill-rule="evenodd"><path d="M0 0h24v24H0z"/><path d="M7.143 19.358a7.993 7.993 0 001.728 1.007l-.979 1.695a1 1 0 11-1.732-1l.983-1.702zm7.994 1.004c.62-.265 1.199-.605 1.726-1.01l.97 1.678a1 1 0 01-1.733 1l-.963-1.668z" fill="#335EEA"/><path d="M12 21a8 8 0 110-16 8 8 0 010 16zm7.069-17.746l1.75 1.75a1.5 1.5 0 01-2.122 2.12l-1.75-1.749a1.5 1.5 0 012.122-2.12zm-13.77-.372a1.5 1.5 0 012.12 2.121L5.3 7.125a1.5 1.5 0 11-2.122-2.122L5.3 2.883z" fill="#335EEA" opacity=".3"/><path d="M11.963 7.5h.085a.5.5 0 01.497.45L13 12.5l3.248 1.856a.5.5 0 01.252.434V15a.382.382 0 01-.482.368l-4.62-1.26a.5.5 0 01-.366-.52l.432-5.626a.5.5 0 01.499-.462z" fill="#335EEA"/></g></svg>
